d1 $ sound "hh hh*<1 4> hh [hh* 1 2 1 8]"

d2 $ slow 2 $ sound "~sd ~ [sd*<1 1 1 3>]"

d3 $ sound "bd*3"

d4 $ note "c3" #sound "supersquare" # gain 0.9 # legato 1.2
    + note "0 0 0 0"
    + note "<3 0>/2"

setcps(1)

hush

